X: 15355
T: Glakey Two-Step, The
R: slide
M: 12/8
K: Amajor
|:c2 d|efe ^d2 e c2 e A>Bc|ded c2 d B2 d B2 A|
GBe gfe GBe gfe|1 efe ded c3-:|2 efe dcB A3||
AED|:CEA cAE CEA cAE|F>^EF B>^AB d>Bd f2 e|
e^de gfe GBe gfe|1 efe ded c3 cED:|2 efe dcB A3||

